X: 13
M:C|
L:1/8
K:Bb
(uFE)|D>BF>d B>fd>b|a>g^f>g e>cA>c|((3BdB) uF>uB G>ec>A|(BA)F2F2(FE)|
|:(ucB)|A>Fc>F B>Fd>F|c>Fe>c ((3BdB) ((3FGA)|B>AG>F E>DC>B,|A,>CF>=E F2 (f_e)|
d>cB>A E2(gf)|(ef) ((3ABc)F2B2|a>gf>e d>cB>A|B2b2B2:|


